src/images_karasa_jaga_svg/cmd/32/flowchartshapes.flowchart-summing-junction.svg

<svg height="32" viewBox="0 0 32 32" width="32" xmlns="http://www.w3.org/2000/svg" xmlns:xlink="http://www.w3.org/1999/xlink"><linearGradient id="a"><stop offset="0" stop-color="#7c9fcf"/><stop offset=".5" stop-color="#7c9ece"/><stop offset="1" stop-color="#7b9dcf"/></linearGradient><linearGradient id="b" gradientUnits="userSpaceOnUse" x1="60" x2="60" y1="128" y2="-1.321351"><stop offset="0" stop-color="#fff"/><stop offset=".42597079" stop-color="#fff"/><stop offset=".5892781" stop-color="#f1f1f1"/><stop offset=".80219781" stop-color="#eaeaea"/><stop offset="1" stop-color="#dfdfdf"/></linearGradient><linearGradient id="c" gradientUnits="userSpaceOnUse" x1="60" x2="60" xlink:href="#a" y1="128" y2="-1.321351"/><linearGradient id="d" gradientUnits="userSpaceOnUse" x1="59.691711" x2="59.691711" xlink:href="#a" y1="132.93271" y2="-6.355898"/><g transform="scale(.25)"><circle cx="64" cy="64" fill="url(#d)" r="55.974892"/><circle cx="64" cy="64" fill="url(#b)" r="51.969425"/><path d="m28.066406 25.037109a53.052898 53.052898 0 0 0 -3.017578 3.041016l35.921875 35.921875-35.933594 35.933594a53.052898 53.052898 0 0 0 3.041016 3.017576l35.921875-35.921873 35.933594 35.933593a53.052898 53.052898 0 0 0 3.017576-3.041015l-35.921873-35.921875 35.933593-35.933594a53.052898 53.052898 0 0 0 -3.041015-3.017578l-35.921875 35.921875z" fill="#7d9ece"/><circle cx="64" cy="64" fill="url(#c)" r="0"/></g></svg>

<?xml version="1.0" encoding="UTF-8" standalone="no"?>
<!-- Created with Inkscape (http://www.inkscape.org/) -->

<svg
   xmlns:dc="http://purl.org/dc/elements/1.1/"
   xmlns:cc="http://creativecommons.org/ns#"
   xmlns:rdf="http://www.w3.org/1999/02/22-rdf-syntax-ns#"
   xmlns:svg="http://www.w3.org/2000/svg"
   xmlns="http://www.w3.org/2000/svg"
   xmlns:xlink="http://www.w3.org/1999/xlink"
   xmlns:sodipodi="http://sodipodi.sourceforge.net/DTD/sodipodi-0.dtd"
   xmlns:inkscape="http://www.inkscape.org/namespaces/inkscape"
   version="1.1"
   id="svg2"
   width="128"
   height="128"
   viewBox="0 0 128 128"
   sodipodi:docname="flowchartshapes.flowchart-summing-junction.svg"
   inkscape:export-filename="/home/rizmut/Dokumen/Rizmut/Github/libreoffice-style-karasa-jaga/build/images_karasa_jaga/cmd/32/flowchartshapes.flowchart-summing-junction.png"
   inkscape:export-xdpi="24"
   inkscape:export-ydpi="24"
   inkscape:version="0.92.3 (unknown)">
  <metadata
     id="metadata8">
    <rdf:RDF>
      <cc:Work
         rdf:about="">
        <dc:format>image/svg+xml</dc:format>
        <dc:type
           rdf:resource="http://purl.org/dc/dcmitype/StillImage" />
        <dc:title></dc:title>
      </cc:Work>
    </rdf:RDF>
  </metadata>
  <defs
     id="defs6">
    <linearGradient
       inkscape:collect="always"
       id="linearGradient825">
      <stop
         style="stop-color:#f9f9fa;stop-opacity:1;"
         offset="0"
         id="stop821" />
      <stop
         style="stop-color:#f9f9fa;stop-opacity:0;"
         offset="1"
         id="stop823" />
    </linearGradient>
    <linearGradient
       inkscape:collect="always"
       xlink:href="#linearGradient825"
       id="linearGradient1536"
       x1="70.052383"
       y1="-18.468208"
       x2="62.030193"
       y2="84.412926"
       gradientUnits="userSpaceOnUse" />
    <linearGradient
       id="linearGradient7422">
      <stop
         style="stop-color:#7c9fcf;stop-opacity:1"
         offset="0"
         id="stop7424" />
      <stop
         id="stop5348"
         offset="0.5"
         style="stop-color:#7c9ece;stop-opacity:1" />
      <stop
         id="stop7426"
         offset="1"
         style="stop-color:#7b9dcf;stop-opacity:1" />
    </linearGradient>
    <linearGradient
       id="linearGradient3369">
      <stop
         id="stop3372"
         offset="0"
         style="stop-color:#ffffff;stop-opacity:1;" />
      <stop
         style="stop-color:#ffffff;stop-opacity:1;"
         offset="0.42597079"
         id="stop3374" />
      <stop
         style="stop-color:#f1f1f1;stop-opacity:1;"
         offset="0.5892781"
         id="stop3376" />
      <stop
         id="stop3378"
         offset="0.80219781"
         style="stop-color:#eaeaea;stop-opacity:1;" />
      <stop
         id="stop3384"
         offset="1"
         style="stop-color:#dfdfdf;stop-opacity:1;" />
    </linearGradient>
    <linearGradient
       inkscape:collect="always"
       xlink:href="#linearGradient3369"
       id="linearGradient1454"
       x1="60"
       y1="128"
       x2="60"
       y2="-1.3213514"
       gradientUnits="userSpaceOnUse" />
    <linearGradient
       inkscape:collect="always"
       xlink:href="#linearGradient7422"
       id="linearGradient1458"
       gradientUnits="userSpaceOnUse"
       x1="60"
       y1="128"
       x2="60"
       y2="-1.3213514" />
    <linearGradient
       inkscape:collect="always"
       xlink:href="#linearGradient7422"
       id="linearGradient1462"
       gradientUnits="userSpaceOnUse"
       x1="60"
       y1="128"
       x2="60"
       y2="-1.3213514"
       gradientTransform="matrix(1.0770736,0,0,1.0770736,-4.9327062,-4.9327062)" />
  </defs>
  <sodipodi:namedview
     pagecolor="#ffffff"
     bordercolor="#666666"
     borderopacity="1"
     objecttolerance="10"
     gridtolerance="10"
     guidetolerance="10"
     inkscape:pageopacity="0"
     inkscape:pageshadow="2"
     inkscape:window-width="1366"
     inkscape:window-height="706"
     id="namedview4"
     showgrid="true"
     inkscape:snap-page="true"
     inkscape:snap-global="true"
     inkscape:zoom="3.4640154"
     inkscape:cx="87.688907"
     inkscape:cy="57.352205"
     inkscape:window-x="0"
     inkscape:window-y="0"
     inkscape:window-maximized="1"
     inkscape:current-layer="svg2"
     inkscape:lockguides="false">
    <inkscape:grid
       type="xygrid"
       id="grid818"
       spacingx="4"
       spacingy="4"
       empspacing="1" />
  </sodipodi:namedview>
  <circle
     r="55.974892"
     cy="64"
     cx="64"
     id="circle1460"
     style="opacity:1;fill:url(#linearGradient1462);fill-opacity:1;stroke:none;stroke-width:5.12547731;stroke-linecap:round;stroke-linejoin:bevel;stroke-miterlimit:4;stroke-dasharray:none;stroke-dashoffset:0;stroke-opacity:0.73039216" />
  <circle
     style="opacity:1;fill:url(#linearGradient1454);fill-opacity:1;stroke:none;stroke-width:4.75870705;stroke-linecap:round;stroke-linejoin:bevel;stroke-miterlimit:4;stroke-dasharray:none;stroke-dashoffset:0;stroke-opacity:0.73039216"
     id="path1515"
     cx="64"
     cy="64"
     r="51.969425" />
  <path
     id="circle1528"
     style="opacity:1;fill:url(#linearGradient1536);fill-opacity:1;stroke:none;stroke-width:3.85701394;stroke-linecap:round;stroke-linejoin:bevel;stroke-miterlimit:4;stroke-dasharray:none;stroke-dashoffset:0;stroke-opacity:0.73039216"
     r="42.122112"
     cy="64"
     cx="64" />
  <path
     style="opacity:1;fill:#7d9ece;fill-opacity:1;stroke:none;stroke-width:4.5825758;stroke-linecap:square;stroke-linejoin:bevel;stroke-miterlimit:4;stroke-dasharray:none;stroke-dashoffset:0;stroke-opacity:1"
     d="M 28.066406 25.037109 A 53.052898 53.052898 0 0 0 25.048828 28.078125 L 60.970703 64 L 25.037109 99.933594 A 53.052898 53.052898 0 0 0 28.078125 102.95117 L 64 67.029297 L 99.933594 102.96289 A 53.052898 53.052898 0 0 0 102.95117 99.921875 L 67.029297 64 L 102.96289 28.066406 A 53.052898 53.052898 0 0 0 99.921875 25.048828 L 64 60.970703 L 28.066406 25.037109 z "
     id="rect831" />
  <ellipse
     r="51.969425"
     cy="64"
     cx="64"
     id="ellipse1456"
     style="opacity:1;fill:url(#linearGradient1458);fill-opacity:1;stroke:none;stroke-width:4.75870705;stroke-linecap:round;stroke-linejoin:bevel;stroke-miterlimit:4;stroke-dasharray:none;stroke-dashoffset:0;stroke-opacity:0.73039216" />
</svg>
